X: 2045
T: Hot as Pepper
R: reel
C: Rick Gagne
N: 1989 on tenor banjo
M: 4/4
K: Ador
^ce |"A"a2a ^g2 aae |"G"gedB cAG2|"F"ABc/B/A "Em"B2ga|"G"gede "Em"g2e2 | 
"A"a2a ^g2 aae | "G"gedB cAG2 | "F"ABc/B/A "Em"B2ga |1 "G"gedB "Am"A2 :|\
[2 "G"gedB "Am"A4 ||
"F"ABc/B/A "Em"B2ga |"G"gede "Em"gedB |"F"ABc/B/A "Em"B2ga |"G"gedB "Am"c2A2|
"F"ABc/B/A "Em"B2ga|"G"gede "Em"gedB|"F"ABc/B/A "Em"B2ga|1 "G"gedB "Am"A4 :|\
[2 "G"gedB "Am"A2 ||
